static/assets/images/exchanges/nile.svg

<svg width="307" height="256" viewBox="0 0 307 256" fill="none" xmlns="http://www.w3.org/2000/svg">
<path d="M153.092 0L118.348 36.9152L153.092 73.8304L187.837 36.9152L153.092 0Z" fill="#B8F2FA"/>
<path d="M37.0181 76.4928L0 38.912V224.371H43.8009V144.384C74.5215 170.19 108.123 192.341 143.934 210.394C187.2 232.184 233.401 247.547 281.084 256L286.015 224.371H306.568V84.608H262.767V204.8C228.086 196.575 194.481 184.324 162.634 168.294C157.257 165.606 152.032 162.854 146.974 160.038L146.935 160.026C106.468 137.644 69.4449 109.513 37.0181 76.5056V76.4928Z" fill="#B8F2FA"/>
</svg>

<svg xmlns="http://www.w3.org/2000/svg" fill="none" viewBox="0 0 307 256"><path fill="#B8F2FA" d="m153.092 0-34.744 36.915 34.744 36.915 34.745-36.915z"/><path fill="#B8F2FA" d="M37.018 76.493 0 38.912v185.459h43.8v-79.987a518.7 518.7 0 0 0 100.134 66.01A498.3 498.3 0 0 0 281.084 256l4.931-31.629h20.553V84.608h-43.801V204.8a457.6 457.6 0 0 1-100.133-36.506 399 399 0 0 1-15.66-8.256l-.039-.012a479.3 479.3 0 0 1-109.917-83.52z"/></svg>
